svgs/sharp-light/engine-warning.svg

<svg xmlns="http://www.w3.org/2000/svg" viewBox="0 0 640 512"><!--! Font Awesome Pro 6.6.0 by @fontawesome - https://fontawesome.com License - https://fontawesome.com/license (Commercial License) Copyright 2024 Fonticons, Inc. --><path d="M416 96l-16 0-80 0 0 32 16 0 80 0 96 64 0 224 0 32-32 0-256 0-51.2-64L128 384l-32 0 0-32 0-80-8 0-56 0 0 80 0 16L0 368l0-16L0 160l0-16 32 0 0 16 0 80 56 0 8 0 0-80 0-32 32 0 32 0 128 0 0-32-80 0-16 0 0-32 16 0 192 0 16 0 0 32zM304 160l-144 0-32 0 0 192 44.8 0 15.4 0 9.6 12 41.6 52L480 416l0-206.9L406.3 160 336 160l-32 0zm304 64l-32 0 0 192 32 0 0-192zm-32-32l32 0 32 0 0 32 0 192 0 32-32 0-32 0-32 0 0-32 0-192 0-32 32 0zm-256 0l0 16 0 80 0 16-32 0 0-16 0-80 0-16 32 0zM280 328l48 0 0 48-48 0 0-48z"/></svg>

<svg xmlns="http://www.w3.org/2000/svg" viewBox="0 0 640 512"><!--! Font Awesome Pro 6.4.0 by @fontawesome - https://fontawesome.com License - https://fontawesome.com/license (Commercial License) Copyright 2023 Fonticons, Inc. --><path d="M416 96l-16 0-80 0v32h16 80l96 64V416v32H480 224l-51.2-64H128 96V352 272H88 32v80 16H0V352 160 144H32v16 80H88h8V160 128h32 32H288V96l-80 0H192V64h16H400h16V96zM304 160l-144 0H128V352h44.8 15.4l9.6 12 41.6 52H480V209.1L406.3 160H336l-32 0zm16 48v80 16H288V288 208 192h32v16zM280 328h48v48H280V328zM576 224V416h32V224H576zm-32-32h32 32 32v32V416v32H608 576 544V416 224 192z"/></svg>
